X: 1
T: Cripple Creek
%O: from Viola Ruth
B: Lee Owens "Advanced Square Dance Figures of the West and Southwest" p.29
R: reel
Z: 2010 John Chambers <jc:trillian.mit.edu>
N: Added missing "A" chords in 1st ending and last bar.
M: 2/4
L: 1/16
K: C
|: "A"cBcA BBAB | cBc2 E4 | cBcA BBAF |[1 "E"EAAB "A"A4 :|[2 "E"EAAB "A"A2 ||
((3efg) | "A"agae fecA | "D"dddf "A"e2(cA) | "D"dddf "A"ecBA | "D"dddf "A"e2((3efg) | agae fecA |
"D"dddf "A"e4 | cBcA BBAF | "E"EAAB "A"A2 || ((3efg) | "A"agae fecA | "D"dddf "A"e2((3efg) |
agae fecA | "D"dddf "A"e2((3efg) | agae fecA | "D"dddf "A"e4 | cBcA BAFE | "E"EAAB "A"A4 |]

%%sep 1 1 500

